images/input-cursor.svg

<svg width="10" height="14" viewBox="0 0 10 14" fill="none" xmlns="http://www.w3.org/2000/svg">
<path d="M5.4 12.325L5 11.7917L4.6 12.325C4.35549 12.651 4.03843 12.9156 3.67394 13.0979C3.30944 13.2801 2.90752 13.375 2.5 13.375H1.25C1.21685 13.375 1.18505 13.3618 1.16161 13.3384C1.13817 13.3149 1.125 13.2832 1.125 13.25C1.125 13.2168 1.13817 13.1851 1.16161 13.1616C1.18505 13.1382 1.21685 13.125 1.25 13.125L2.5 13.125L2.50207 13.125C3.13061 13.1224 3.73266 12.8716 4.17711 12.4271C4.62155 11.9827 4.87239 11.3806 4.875 10.7521V10.75V7.625V7.125H4.375H3.125C3.09185 7.125 3.06005 7.11183 3.03661 7.08839C3.01317 7.06495 3 7.03315 3 7C3 6.96685 3.01317 6.93505 3.03661 6.91161C3.06005 6.88817 3.09185 6.875 3.125 6.875H4.375H4.875V6.375L4.875 3.25L4.875 3.24793C4.87239 2.61939 4.62155 2.01734 4.17711 1.57289C3.73266 1.12845 3.13061 0.877607 2.50207 0.875004V0.875H2.5H1.25C1.21685 0.875 1.18505 0.861831 1.16161 0.838388C1.13817 0.814946 1.125 0.783152 1.125 0.75C1.125 0.716848 1.13817 0.685054 1.16161 0.661612C1.18505 0.638169 1.21685 0.625 1.25 0.625H2.5C2.90752 0.625 3.30944 0.719881 3.67394 0.902129C4.03843 1.08438 4.35549 1.34899 4.6 1.675L5 2.20833L5.4 1.675C5.64451 1.34899 5.96157 1.08438 6.32606 0.902129C6.69056 0.719881 7.09248 0.625 7.5 0.625H8.75C8.78315 0.625 8.81495 0.63817 8.83839 0.661612C8.86183 0.685053 8.875 0.716847 8.875 0.75C8.875 0.783153 8.86183 0.814947 8.83839 0.838388C8.81495 0.86183 8.78315 0.875 8.75 0.875L7.5 0.874996L7.49793 0.875004C6.86939 0.877607 6.26734 1.12845 5.82289 1.57289C5.37845 2.01734 5.12761 2.61939 5.125 3.24793H5.125V3.25V6.375V6.875H5.625H6.875C6.90815 6.875 6.93995 6.88817 6.96339 6.91161C6.98683 6.93505 7 6.96685 7 7C7 7.03315 6.98683 7.06495 6.96339 7.08839C6.93995 7.11183 6.90815 7.125 6.875 7.125H5.625H5.125V7.625L5.125 10.75L5.125 10.7521C5.12761 11.3806 5.37845 11.9827 5.82289 12.4271C6.26734 12.8716 6.86939 13.1224 7.49793 13.125H7.5H8.75C8.78315 13.125 8.81495 13.1382 8.83839 13.1616C8.86183 13.1851 8.875 13.2168 8.875 13.25C8.875 13.2832 8.86183 13.3149 8.83839 13.3384C8.81495 13.3618 8.78315 13.375 8.75 13.375H7.5C7.09248 13.375 6.69056 13.2801 6.32606 13.0979C5.96157 12.9156 5.64451 12.651 5.4 12.325Z" fill="white" stroke="black"/>
</svg>

<svg width="10" height="14" fill="none" xmlns="http://www.w3.org/2000/svg"><path d="m5.4 12.325-.4-.533-.4.533a2.626 2.626 0 0 1-2.1 1.05H1.25a.125.125 0 0 1 0-.25h1.252a2.383 2.383 0 0 0 2.373-2.373V7.125h-1.75a.125.125 0 0 1 0-.25h1.75V3.248A2.383 2.383 0 0 0 2.502.875H1.25a.125.125 0 1 1 0-.25H2.5a2.625 2.625 0 0 1 2.1 1.05l.4.533.4-.533A2.625 2.625 0 0 1 7.5.625h1.25a.125.125 0 0 1 0 .25H7.498a2.383 2.383 0 0 0-2.373 2.373v3.627h1.75a.125.125 0 0 1 0 .25h-1.75v3.627a2.383 2.383 0 0 0 2.373 2.373H8.75a.125.125 0 0 1 0 .25H7.5a2.626 2.626 0 0 1-2.1-1.05Z" fill="#fff" stroke="#000"/></svg>
